static/img/kroki/f21b491e9e18f117a3722ff9ae416d80.svg

<?xml version="1.0" encoding="us-ascii" standalone="no"?><svg xmlns="http://www.w3.org/2000/svg" xmlns:xlink="http://www.w3.org/1999/xlink" contentStyleType="text/css" height="252px" preserveAspectRatio="none" style="width:580px;height:252px;" version="1.1" viewBox="0 0 580 252" width="580px" zoomAndPan="magnify"><defs/><g><!--class gcp_disk--><g id="elem_gcp_disk"><rect codeLine="23" fill="#3D176E" height="39.7891" id="gcp_disk" rx="2.5" ry="2.5" style="stroke:#000D19;stroke-width:0.5;" width="112" x="222.5" y="106.79"/><ellipse cx="237.5" cy="126.6845" fill="#ADD1B2" rx="11" ry="11" style="stroke:#181818;stroke-width:1.0;"/><path d="M240.4688,132.3252 Q239.8906,132.622 239.25,132.7627 Q238.6094,132.9189 237.9063,132.9189 Q235.4063,132.9189 234.0781,131.2783 Q232.7656,129.622 232.7656,126.497 Q232.7656,123.372 234.0781,121.7158 Q235.4063,120.0595 237.9063,120.0595 Q238.6094,120.0595 239.25,120.2158 Q239.9063,120.372 240.4688,120.6689 L240.4688,123.3877 Q239.8438,122.8095 239.25,122.5439 Q238.6563,122.2627 238.0313,122.2627 Q236.6875,122.2627 236,123.3408 Q235.3125,124.4033 235.3125,126.497 Q235.3125,128.5908 236,129.6689 Q236.6875,130.7314 238.0313,130.7314 Q238.6563,130.7314 239.25,130.4658 Q239.8438,130.1845 240.4688,129.6064 L240.4688,132.3252 Z " fill="#000000"/><text fill="#D9B8FF" font-family="Helvetica" font-size="17" lengthAdjust="spacing" textLength="70" x="256.5" y="132.5698">gcp_disk</text></g><!--class gcp_disk_type--><g id="elem_gcp_disk_type"><rect codeLine="26" fill="#3D176E" height="39.7891" id="gcp_disk_type" rx="2.5" ry="2.5" style="stroke:#000D19;stroke-width:0.5;" width="158" x="11.5" y="7"/><ellipse cx="26.5" cy="26.8945" fill="#ADD1B2" rx="11" ry="11" style="stroke:#181818;stroke-width:1.0;"/><path d="M29.4688,32.5352 Q28.8906,32.832 28.25,32.9727 Q27.6094,33.1289 26.9063,33.1289 Q24.4063,33.1289 23.0781,31.4883 Q21.7656,29.832 21.7656,26.707 Q21.7656,23.582 23.0781,21.9258 Q24.4063,20.2695 26.9063,20.2695 Q27.6094,20.2695 28.25,20.4258 Q28.9063,20.582 29.4688,20.8789 L29.4688,23.5977 Q28.8438,23.0195 28.25,22.7539 Q27.6563,22.4727 27.0313,22.4727 Q25.6875,22.4727 25,23.5508 Q24.3125,24.6133 24.3125,26.707 Q24.3125,28.8008 25,29.8789 Q25.6875,30.9414 27.0313,30.9414 Q27.6563,30.9414 28.25,30.6758 Q28.8438,30.3945 29.4688,29.8164 L29.4688,32.5352 Z " fill="#000000"/><text fill="#D9B8FF" font-family="Helvetica" font-size="17" lengthAdjust="spacing" textLength="116" x="45.5" y="32.7798">gcp_disk_type</text></g><!--class gcp_image--><g id="elem_gcp_image"><rect codeLine="29" fill="#3D176E" height="39.7891" id="gcp_image" rx="2.5" ry="2.5" style="stroke:#000D19;stroke-width:0.5;" width="131" x="7" y="206.58"/><ellipse cx="22" cy="226.4745" fill="#ADD1B2" rx="11" ry="11" style="stroke:#181818;stroke-width:1.0;"/><path d="M24.9688,232.1152 Q24.3906,232.412 23.75,232.5527 Q23.1094,232.7089 22.4063,232.7089 Q19.9063,232.7089 18.5781,231.0683 Q17.2656,229.412 17.2656,226.287 Q17.2656,223.162 18.5781,221.5058 Q19.9063,219.8495 22.4063,219.8495 Q23.1094,219.8495 23.75,220.0058 Q24.4063,220.162 24.9688,220.4589 L24.9688,223.1777 Q24.3438,222.5995 23.75,222.3339 Q23.1563,222.0527 22.5313,222.0527 Q21.1875,222.0527 20.5,223.1308 Q19.8125,224.1933 19.8125,226.287 Q19.8125,228.3808 20.5,229.4589 Q21.1875,230.5214 22.5313,230.5214 Q23.1563,230.5214 23.75,230.2558 Q24.3438,229.9745 24.9688,229.3964 L24.9688,232.1152 Z " fill="#000000"/><text fill="#D9B8FF" font-family="Helvetica" font-size="17" lengthAdjust="spacing" textLength="89" x="41" y="232.3598">gcp_image</text></g><!--class gcp_instance--><g id="elem_gcp_instance"><rect codeLine="32" fill="#3D176E" height="39.7891" id="gcp_instance" rx="2.5" ry="2.5" style="stroke:#000D19;stroke-width:0.5;" width="149" x="204" y="7"/><ellipse cx="219" cy="26.8945" fill="#ADD1B2" rx="11" ry="11" style="stroke:#181818;stroke-width:1.0;"/><path d="M221.9688,32.5352 Q221.3906,32.832 220.75,32.9727 Q220.1094,33.1289 219.4063,33.1289 Q216.9063,33.1289 215.5781,31.4883 Q214.2656,29.832 214.2656,26.707 Q214.2656,23.582 215.5781,21.9258 Q216.9063,20.2695 219.4063,20.2695 Q220.1094,20.2695 220.75,20.4258 Q221.4063,20.582 221.9688,20.8789 L221.9688,23.5977 Q221.3438,23.0195 220.75,22.7539 Q220.1563,22.4727 219.5313,22.4727 Q218.1875,22.4727 217.5,23.5508 Q216.8125,24.6133 216.8125,26.707 Q216.8125,28.8008 217.5,29.8789 Q218.1875,30.9414 219.5313,30.9414 Q220.1563,30.9414 220.75,30.6758 Q221.3438,30.3945 221.9688,29.8164 L221.9688,32.5352 Z " fill="#000000"/><text fill="#D9B8FF" font-family="Helvetica" font-size="17" lengthAdjust="spacing" textLength="107" x="238" y="32.7798">gcp_instance</text></g><!--class gcp_machine_image--><g id="elem_gcp_machine_image"><rect codeLine="35" fill="#3D176E" height="39.7891" id="gcp_machine_image" rx="2.5" ry="2.5" style="stroke:#000D19;stroke-width:0.5;" width="212" x="172.5" y="206.58"/><ellipse cx="187.5" cy="226.4745" fill="#ADD1B2" rx="11" ry="11" style="stroke:#181818;stroke-width:1.0;"/><path d="M190.4688,232.1152 Q189.8906,232.412 189.25,232.5527 Q188.6094,232.7089 187.9063,232.7089 Q185.4063,232.7089 184.0781,231.0683 Q182.7656,229.412 182.7656,226.287 Q182.7656,223.162 184.0781,221.5058 Q185.4063,219.8495 187.9063,219.8495 Q188.6094,219.8495 189.25,220.0058 Q189.9063,220.162 190.4688,220.4589 L190.4688,223.1777 Q189.8438,222.5995 189.25,222.3339 Q188.6563,222.0527 188.0313,222.0527 Q186.6875,222.0527 186,223.1308 Q185.3125,224.1933 185.3125,226.287 Q185.3125,228.3808 186,229.4589 Q186.6875,230.5214 188.0313,230.5214 Q188.6563,230.5214 189.25,230.2558 Q189.8438,229.9745 190.4688,229.3964 L190.4688,232.1152 Z " fill="#000000"/><text fill="#D9B8FF" font-family="Helvetica" font-size="17" lengthAdjust="spacing" textLength="170" x="206.5" y="232.3598">gcp_machine_image</text></g><!--class gcp_operation--><g id="elem_gcp_operation"><rect codeLine="38" fill="#3D176E" height="39.7891" id="gcp_operation" rx="2.5" ry="2.5" style="stroke:#000D19;stroke-width:0.5;" width="159" x="388" y="7"/><ellipse cx="403" cy="26.8945" fill="#ADD1B2" rx="11" ry="11" style="stroke:#181818;stroke-width:1.0;"/><path d="M405.9688,32.5352 Q405.3906,32.832 404.75,32.9727 Q404.1094,33.1289 403.4063,33.1289 Q400.9063,33.1289 399.5781,31.4883 Q398.2656,29.832 398.2656,26.707 Q398.2656,23.582 399.5781,21.9258 Q400.9063,20.2695 403.4063,20.2695 Q404.1094,20.2695 404.75,20.4258 Q405.4063,20.582 405.9688,20.8789 L405.9688,23.5977 Q405.3438,23.0195 404.75,22.7539 Q404.1563,22.4727 403.5313,22.4727 Q402.1875,22.4727 401.5,23.5508 Q400.8125,24.6133 400.8125,26.707 Q400.8125,28.8008 401.5,29.8789 Q402.1875,30.9414 403.5313,30.9414 Q404.1563,30.9414 404.75,30.6758 Q405.3438,30.3945 405.9688,29.8164 L405.9688,32.5352 Z " fill="#000000"/><text fill="#D9B8FF" font-family="Helvetica" font-size="17" lengthAdjust="spacing" textLength="117" x="422" y="32.7798">gcp_operation</text></g><!--class gcp_snapshot--><g id="elem_gcp_snapshot"><rect codeLine="41" fill="#3D176E" height="39.7891" id="gcp_snapshot" rx="2.5" ry="2.5" style="stroke:#000D19;stroke-width:0.5;" width="154" x="419.5" y="206.58"/><ellipse cx="434.5" cy="226.4745" fill="#ADD1B2" rx="11" ry="11" style="stroke:#181818;stroke-width:1.0;"/><path d="M437.4688,232.1152 Q436.8906,232.412 436.25,232.5527 Q435.6094,232.7089 434.9063,232.7089 Q432.4063,232.7089 431.0781,231.0683 Q429.7656,229.412 429.7656,226.287 Q429.7656,223.162 431.0781,221.5058 Q432.4063,219.8495 434.9063,219.8495 Q435.6094,219.8495 436.25,220.0058 Q436.9063,220.162 437.4688,220.4589 L437.4688,223.1777 Q436.8438,222.5995 436.25,222.3339 Q435.6563,222.0527 435.0313,222.0527 Q433.6875,222.0527 433,223.1308 Q432.3125,224.1933 432.3125,226.287 Q432.3125,228.3808 433,229.4589 Q433.6875,230.5214 435.0313,230.5214 Q435.6563,230.5214 436.25,230.2558 Q436.8438,229.9745 437.4688,229.3964 L437.4688,232.1152 Z " fill="#000000"/><text fill="#D9B8FF" font-family="Helvetica" font-size="17" lengthAdjust="spacing" textLength="112" x="453.5" y="232.3598">gcp_snapshot</text></g><!--link gcp_disk to gcp_image--><g id="link_gcp_disk_gcp_image"><path codeLine="44" d="M237.8,147.01 C201.69,164.15 154.6198,186.486 118.5298,203.626 " fill="none" id="gcp_disk-to-gcp_image" style="stroke:#1A83AF;stroke-width:2.0;"/><polygon fill="#1A83AF" points="113.11,206.2,122.9557,205.9522,117.6265,204.055,119.5237,198.7258,113.11,206.2" style="stroke:#1A83AF;stroke-width:2.0;"/></g><!--link gcp_disk to gcp_machine_image--><g id="link_gcp_disk_gcp_machine_image"><path codeLine="45" d="M278.5,147.01 C278.5,164.15 278.5,183.06 278.5,200.2 " fill="none" id="gcp_disk-to-gcp_machine_image" style="stroke:#1A83AF;stroke-width:2.0;"/><polygon fill="#1A83AF" points="278.5,206.2,282.5,197.2,278.5,201.2,274.5,197.2,278.5,206.2" style="stroke:#1A83AF;stroke-width:2.0;"/></g><!--link gcp_disk to gcp_snapshot--><g id="link_gcp_disk_gcp_snapshot"><path codeLine="46" d="M321.57,147.01 C359.79,164.15 409.856,186.6032 448.046,203.7432 " fill="none" id="gcp_disk-to-gcp_snapshot" style="stroke:#1A83AF;stroke-width:2.0;"/><polygon fill="#1A83AF" points="453.52,206.2,446.9469,198.8655,448.9584,204.1527,443.6712,206.1642,453.52,206.2" style="stroke:#1A83AF;stroke-width:2.0;"/></g><!--link gcp_disk_type to gcp_disk--><g id="link_gcp_disk_type_gcp_disk"><path codeLine="47" d="M127.64,47.22 C160.6,64.36 203.1778,86.4998 236.1078,103.6398 " fill="none" id="gcp_disk_type-to-gcp_disk" style="stroke:#1A83AF;stroke-width:2.0;"/><polygon fill="#1A83AF" points="241.43,106.41,235.2935,98.7066,236.9948,104.1015,231.5999,105.8028,241.43,106.41" style="stroke:#1A83AF;stroke-width:2.0;"/></g><!--link gcp_instance to gcp_disk--><g id="link_gcp_instance_gcp_disk"><path codeLine="48" d="M278.5,47.22 C278.5,64.36 278.5,83.27 278.5,100.41 " fill="none" id="gcp_instance-to-gcp_disk" style="stroke:#1A83AF;stroke-width:2.0;"/><polygon fill="#1A83AF" points="278.5,106.41,282.5,97.41,278.5,101.41,274.5,97.41,278.5,106.41" style="stroke:#1A83AF;stroke-width:2.0;"/></g><!--link gcp_operation to gcp_disk--><g id="link_gcp_operation_gcp_disk"><path codeLine="49" d="M430.16,47.22 C397.03,64.36 354.1984,86.5117 321.0884,103.6517 " fill="none" id="gcp_operation-to-gcp_disk" style="stroke:#1A83AF;stroke-width:2.0;"/><polygon fill="#1A83AF" points="315.76,106.41,325.5915,105.8248,320.2003,104.1114,321.9137,98.7203,315.76,106.41" style="stroke:#1A83AF;stroke-width:2.0;"/></g><!--SRC=[XP1HJy8m58NVzokQy4p290gyc4mIeY_4Y6_6a4jxkpLRswKj4ZJ-Tvq8TEqOh-TylUUS5e8XGLcxFP4eDsXiOakXQZ0WIMQCtirrfGqPS0vyF0dDXLRkAh04YUGHgmzqWa98l1Q2bWgj9JUUzG2qp8tUAdOuxmme-skXSXurhy3Qp3aZDbk7NXassqmv3ydmw63CqiaTHfWs3Cq_CXgDM3eBaQjHlRjFn4fy8adzJrjgXr7DAEAFwctP45x9QEZHlzZn6HWJAYUtdlPow6GKcfQ-Ae3fNKDpgAmVOnqQr6vVupnQXRCfuvDE-EaIdD3cwqXEwpKJjYHVIV8TQElcG6W82NaiAkj0qKYNG0kXiFkHhj604rg5XbLGsqAxWtvgE7mRfDbqd2tUX_VdAZr-Axs7E-ObxU4HrrX9Q-vbv3okc_a1]--></g></svg>

<svg xmlns="http://www.w3.org/2000/svg" width="580" height="252" viewBox="0 0 580 252"><rect width="112" height="39.789" x="222.5" y="106.79" fill="#3D176E" rx="2.5" ry="2.5" style="stroke:#000d19;stroke-width:.5"/><circle cx="237.5" cy="126.684" r="11" fill="#ADD1B2" style="stroke:#181818;stroke-width:1"/><path d="M240.469 132.325q-.578.297-1.219.438-.64.156-1.344.156-2.5 0-3.828-1.64-1.312-1.657-1.312-4.782t1.312-4.781q1.328-1.656 3.828-1.656.703 0 1.344.156.656.156 1.219.453v2.719q-.625-.579-1.219-.844-.594-.281-1.219-.281-1.344 0-2.031 1.078-.687 1.062-.687 3.156t.687 3.172q.688 1.062 2.031 1.062.625 0 1.219-.265.594-.281 1.219-.86z"/><text x="256.5" y="132.57" fill="#D9B8FF" font-family="Helvetica" font-size="17" textLength="70">gcp_disk</text><rect width="158" height="39.789" x="11.5" y="7" fill="#3D176E" rx="2.5" ry="2.5" style="stroke:#000d19;stroke-width:.5"/><circle cx="26.5" cy="26.895" r="11" fill="#ADD1B2" style="stroke:#181818;stroke-width:1"/><path d="M29.469 32.535q-.578.297-1.219.438-.64.156-1.344.156-2.5 0-3.828-1.64-1.312-1.657-1.312-4.782t1.312-4.781q1.328-1.656 3.828-1.656.703 0 1.344.156.656.156 1.219.453v2.719q-.625-.578-1.219-.844-.594-.281-1.219-.281-1.343 0-2.031 1.078-.687 1.062-.687 3.156T25 29.879q.688 1.062 2.031 1.062.625 0 1.219-.265.594-.281 1.219-.86z"/><text x="45.5" y="32.78" fill="#D9B8FF" font-family="Helvetica" font-size="17" textLength="116">gcp_disk_type</text><rect width="131" height="39.789" x="7" y="206.58" fill="#3D176E" rx="2.5" ry="2.5" style="stroke:#000d19;stroke-width:.5"/><circle cx="22" cy="226.475" r="11" fill="#ADD1B2" style="stroke:#181818;stroke-width:1"/><path d="M24.969 232.115q-.578.297-1.219.438-.64.156-1.344.156-2.5 0-3.828-1.64-1.312-1.657-1.312-4.782t1.312-4.781q1.328-1.656 3.828-1.656.703 0 1.344.156.656.156 1.219.453v2.719q-.625-.578-1.219-.844-.594-.281-1.219-.281-1.343 0-2.031 1.078-.687 1.062-.687 3.156t.687 3.172q.688 1.062 2.031 1.062.625 0 1.219-.265.594-.281 1.219-.86z"/><text x="41" y="232.36" fill="#D9B8FF" font-family="Helvetica" font-size="17" textLength="89">gcp_image</text><rect width="149" height="39.789" x="204" y="7" fill="#3D176E" rx="2.5" ry="2.5" style="stroke:#000d19;stroke-width:.5"/><circle cx="219" cy="26.895" r="11" fill="#ADD1B2" style="stroke:#181818;stroke-width:1"/><path d="M221.969 32.535q-.578.297-1.219.438-.64.156-1.344.156-2.5 0-3.828-1.64-1.312-1.657-1.312-4.782t1.312-4.781q1.328-1.656 3.828-1.656.703 0 1.344.156.656.156 1.219.453v2.719q-.625-.578-1.219-.844-.594-.281-1.219-.281-1.344 0-2.031 1.078-.687 1.062-.687 3.156t.687 3.172q.688 1.062 2.031 1.062.625 0 1.219-.265.594-.281 1.219-.86z"/><text x="238" y="32.78" fill="#D9B8FF" font-family="Helvetica" font-size="17" textLength="107">gcp_instance</text><rect width="212" height="39.789" x="172.5" y="206.58" fill="#3D176E" rx="2.5" ry="2.5" style="stroke:#000d19;stroke-width:.5"/><circle cx="187.5" cy="226.475" r="11" fill="#ADD1B2" style="stroke:#181818;stroke-width:1"/><path d="M190.469 232.115q-.578.297-1.219.438-.64.156-1.344.156-2.5 0-3.828-1.64-1.312-1.657-1.312-4.782t1.312-4.781q1.328-1.656 3.828-1.656.703 0 1.344.156.656.156 1.219.453v2.719q-.625-.578-1.219-.844-.594-.281-1.219-.281-1.344 0-2.031 1.078-.687 1.062-.687 3.156t.687 3.172q.688 1.062 2.031 1.062.625 0 1.219-.265.594-.281 1.219-.86z"/><text x="206.5" y="232.36" fill="#D9B8FF" font-family="Helvetica" font-size="17" textLength="170">gcp_machine_image</text><rect width="159" height="39.789" x="388" y="7" fill="#3D176E" rx="2.5" ry="2.5" style="stroke:#000d19;stroke-width:.5"/><circle cx="403" cy="26.895" r="11" fill="#ADD1B2" style="stroke:#181818;stroke-width:1"/><path d="M405.969 32.535q-.578.297-1.219.438-.64.156-1.344.156-2.5 0-3.828-1.64-1.312-1.657-1.312-4.782t1.312-4.781q1.328-1.656 3.828-1.656.703 0 1.344.156.656.156 1.219.453v2.719q-.625-.578-1.219-.844-.594-.281-1.219-.281-1.344 0-2.031 1.078-.687 1.062-.687 3.156t.687 3.172q.688 1.062 2.031 1.062.625 0 1.219-.265.594-.281 1.219-.86z"/><text x="422" y="32.78" fill="#D9B8FF" font-family="Helvetica" font-size="17" textLength="117">gcp_operation</text><rect width="154" height="39.789" x="419.5" y="206.58" fill="#3D176E" rx="2.5" ry="2.5" style="stroke:#000d19;stroke-width:.5"/><circle cx="434.5" cy="226.475" r="11" fill="#ADD1B2" style="stroke:#181818;stroke-width:1"/><path d="M437.469 232.115q-.578.297-1.219.438-.64.156-1.344.156-2.5 0-3.828-1.64-1.312-1.657-1.312-4.782t1.312-4.781q1.328-1.656 3.828-1.656.703 0 1.344.156.656.156 1.219.453v2.719q-.625-.578-1.219-.844-.594-.281-1.219-.281-1.344 0-2.031 1.078-.687 1.062-.687 3.156t.687 3.172q.688 1.062 2.031 1.062.625 0 1.219-.265.594-.281 1.219-.86z"/><text x="453.5" y="232.36" fill="#D9B8FF" font-family="Helvetica" font-size="17" textLength="112">gcp_snapshot</text><path fill="none" d="M237.8 147.01c-36.11 17.14-83.18 39.476-119.27 56.616" style="stroke:#1a83af;stroke-width:2"/><path fill="#1A83AF" d="m113.11 206.2 9.846-.248-5.33-1.897 1.898-5.33z" style="stroke:#1a83af;stroke-width:2"/><path fill="none" d="M278.5 147.01v53.19" style="stroke:#1a83af;stroke-width:2"/><path fill="#1A83AF" d="m278.5 206.2 4-9-4 4-4-4z" style="stroke:#1a83af;stroke-width:2"/><path fill="none" d="M321.57 147.01c38.22 17.14 88.286 39.593 126.476 56.733" style="stroke:#1a83af;stroke-width:2"/><path fill="#1A83AF" d="m453.52 206.2-6.573-7.334 2.011 5.287-5.287 2.011z" style="stroke:#1a83af;stroke-width:2"/><path fill="none" d="M127.64 47.22c32.96 17.14 75.538 39.28 108.468 56.42" style="stroke:#1a83af;stroke-width:2"/><path fill="#1A83AF" d="m241.43 106.41-6.137-7.703 1.702 5.395-5.395 1.7z" style="stroke:#1a83af;stroke-width:2"/><path fill="none" d="M278.5 47.22v53.19" style="stroke:#1a83af;stroke-width:2"/><path fill="#1A83AF" d="m278.5 106.41 4-9-4 4-4-4z" style="stroke:#1a83af;stroke-width:2"/><path fill="none" d="M430.16 47.22c-33.13 17.14-75.962 39.292-109.072 56.432" style="stroke:#1a83af;stroke-width:2"/><path fill="#1A83AF" d="m315.76 106.41 9.832-.585-5.392-1.714 1.714-5.39z" style="stroke:#1a83af;stroke-width:2"/></svg>
